src/assets/duotone/Figma.svg

<?xml version="1.0" encoding="UTF-8"?>
<svg width="24" height="24" viewBox="0 0 24 24" xmlns="http://www.w3.org/2000/svg">
 <path d="m12 22c5.5228 0 10-4.4772 10-10 0-5.5228-4.4772-10-10-10-5.5228 0-10 4.4772-10 10 0 5.5228 4.4772 10 10 10z" opacity=".4"/>
 <path d="m12 6h-2c-1.1 0-2 0.9-2 2s0.9 2 2 2h2v-4z"/>
 <path d="m12 10h-2c-1.1 0-2 0.9-2 2s0.9 2 2 2h2v-4z" opacity=".4"/>
 <path d="m12 14h-2c-1.1 0-2 0.9-2 2s0.9 2 2 2 2-0.9 2-2v-2z"/>
 <path d="m12 6h2c1.1 0 2 0.9 2 2s-0.9 2-2 2h-2v-4z" opacity=".4"/>
 <path d="m14 10c1.1 0 2 0.9 2 2s-0.9 2-2 2-2-0.9-2-2 0.9-2 2-2z"/>
</svg>

<svg width="24" height="24" viewBox="0 0 24 24"  xmlns="http://www.w3.org/2000/svg">
<path opacity="0.4" d="M12 22C17.5228 22 22 17.5228 22 12C22 6.47715 17.5228 2 12 2C6.47715 2 2 6.47715 2 12C2 17.5228 6.47715 22 12 22Z" />
<path d="M12 6H10C8.9 6 8 6.9 8 8C8 9.1 8.9 10 10 10H12V6Z" />
<path opacity="0.4" d="M12 10H10C8.9 10 8 10.9 8 12C8 13.1 8.9 14 10 14H12V10Z" />
<path d="M12 14H10C8.9 14 8 14.9 8 16C8 17.1 8.9 18 10 18C11.1 18 12 17.1 12 16V14Z" />
<path opacity="0.4" d="M12 6H14C15.1 6 16 6.9 16 8C16 9.1 15.1 10 14 10H12V6Z" />
<path d="M14 10C15.1 10 16 10.9 16 12C16 13.1 15.1 14 14 14C12.9 14 12 13.1 12 12C12 10.9 12.9 10 14 10Z" />
</svg>
